X: 1
T:GRAND OLD FLAG  "GRANDFLG"
M:C
L:1/8
Q:80
C:AFTER GEO M COHAN
S:MARCH
K:HP
af[|
{Gdc}d2{gdG}d2{gdG}d2{g}BA|
{Gdc}de-ec{Gdc}d2{g}BA|
{Gdc}d2{g}BA{Gdc}d2{g}BA|  !
{GdG}c6{g}AB|
{GdG}c2{Gdc}d2{gef}e3A|
{Gdc}d2e2{gfg}f3d|  !
{g}ef-fd{g}ef-fd|
{gef}e4{A}e2af|
{Gdc}d2{gdG}d2{gdG}d2{g}BA|  !
{Gdc}de-ec{Gdc}d3c|
{g}B2{g}de{gf}g2f2|
{gef}e4{A}e2A2|  !
{Gdc}d3{g}d{e}d2f2|
{gef}e3d{g}e2{g}A{d}A|
{g}Bd-dB{Gdc}d2e2|  !
{Gdc}d4{gdG}d2|]
